kiosk-igrinskij/images/677221867ae914619e793fcfff215b62.svg

<svg fill="none" height="13" viewBox="0 0 16 13" width="16" xmlns="http://www.w3.org/2000/svg"><g fill="#f1e9dd"><path d="m0 5.74316h15c.5523 0 1 .44772 1 1v.70086c0 2.76138-2.2386 4.99998-5 4.99998h-6c-2.76142 0-5-2.2386-5-4.99998z"/><path d="m5 12.4443c-2.76142 0-5.00000008-2.2385-5.00000018-4.99996l-.00000009-2.44445c-.0000001-2.76143 2.23858027-4.99999884 5.00000027-4.99999898l2-.00000011c.55229-.00000002 1 .44771509 1 1.00000009v11.444409z"/></g></svg>

<svg width="16" height="13" viewBox="0 0 16 13" fill="none" xmlns="http://www.w3.org/2000/svg">
<path d="M0 5.74316H15C15.5523 5.74316 16 6.19088 16 6.74316V7.44402C16 10.2054 13.7614 12.444 11 12.444H5C2.23858 12.444 0 10.2054 0 7.44402V5.74316Z" fill="#F1E9DD"/>
<path d="M5 12.4443C2.23858 12.4443 -8.17757e-08 10.2058 -1.82651e-07 7.44434L-2.71947e-07 4.99989C-3.72823e-07 2.23846 2.23858 -0.000108836 5 -0.00010898L7 -0.000109085C7.55229 -0.000109114 8 0.447606 8 0.999891L8 12.4443L5 12.4443Z" fill="#F1E9DD"/>
</svg>
